flaticon/outdoor/backpack.svg

<svg xmlns="http://www.w3.org/2000/svg" width="32" height="32" viewBox="0 0 24 24">
    <path d="M 15.132812 8.140625 C 15.042969 8.050781 14.929688 8.019531 14.796875 8 C 14.671875 8 14.550781 8.050781 14.464844 8.140625 L 13.136719 9.464844 C 12.953125 9.648438 12.953125 9.949219 13.136719 10.132812 L 14.449219 11.460938 C 14.539062 11.554688 14.664062 11.601562 14.785156 11.601562 C 14.90625 11.601562 15.027344 11.554688 15.117188 11.464844 L 16.457031 10.136719 C 16.546875 10.046875 16.597656 9.929688 16.597656 9.800781 C 16.597656 9.675781 16.546875 9.554688 16.457031 9.464844 Z M 14.785156 10.664062 L 13.929688 9.800781 L 14.796875 8.9375 L 15.660156 9.796875 Z M 14.785156 10.664062"/>
    <path d="M 21.199219 7.3125 L 21.199219 7.308594 L 21.105469 7.242188 C 20.980469 7.152344 20.847656 7.070312 20.710938 6.988281 C 20.679688 6.96875 20.644531 6.945312 20.613281 6.925781 C 20.496094 6.859375 20.382812 6.796875 20.261719 6.738281 C 20.238281 6.726562 20.214844 6.714844 20.191406 6.703125 C 20.128906 6.671875 20.066406 6.640625 20 6.609375 L 20 5.601562 L 21 5.601562 C 22.433594 5.601562 23.601562 4.433594 23.601562 3 C 23.601562 1.566406 22.433594 0.398438 21 0.398438 L 19.867188 0.398438 C 19.71875 0.160156 19.453125 0 19.148438 0 L 18.050781 0 C 17.746094 0 17.484375 0.160156 17.332031 0.398438 L 12.269531 0.398438 C 12.117188 0.160156 11.851562 0 11.546875 0 L 10.453125 0 C 10.148438 0 9.882812 0.160156 9.730469 0.398438 L 8.601562 0.398438 C 7.167969 0.398438 6 1.566406 6 3 C 6 4.433594 7.167969 5.601562 8.601562 5.601562 L 9.601562 5.601562 L 9.601562 6.445312 C 9.195312 6.597656 8.8125 6.789062 8.449219 7.011719 L 8.398438 7.039062 L 8.398438 7.042969 C 7.714844 7.472656 7.113281 8.019531 6.621094 8.65625 C 6.460938 8.496094 6.242188 8.398438 6 8.398438 L 5.199219 8.398438 L 5.199219 7.441406 C 5.199219 7.089844 4.910156 6.800781 4.558594 6.800781 L 3.441406 6.800781 C 3.089844 6.800781 2.800781 7.089844 2.800781 7.441406 L 2.800781 8.398438 L 2.082031 8.398438 C 1.59375 8.398438 1.199219 8.792969 1.199219 9.28125 L 1.199219 10 C 0.539062 10 0 10.539062 0 11.199219 C 0 11.722656 0.335938 12.160156 0.800781 12.328125 L 0.800781 14.398438 L 0 14.398438 L 0 20.464844 C 0 22.414062 1.585938 24 3.535156 24 L 21.199219 24 C 22.742188 24 24 22.742188 24 21.199219 L 24 12.800781 C 24 10.546875 22.894531 8.550781 21.199219 7.3125 Z M 22.871094 10.863281 C 22.847656 11.949219 22.238281 12.863281 21.199219 13.394531 L 21.199219 8.339844 C 21.957031 9.019531 22.539062 9.882812 22.871094 10.863281 Z M 9.199219 13.601562 L 11.601562 13.601562 L 11.601562 14.632812 L 10.398438 15.835938 L 9.199219 14.632812 Z M 20.394531 7.730469 C 20.394531 7.730469 20.398438 7.730469 20.398438 7.734375 L 20.398438 10.398438 L 18 10.398438 L 18 6.863281 C 18.007812 6.863281 18.011719 6.863281 18.019531 6.863281 C 18.21875 6.890625 18.414062 6.929688 18.609375 6.976562 C 18.636719 6.984375 18.667969 6.992188 18.699219 7 C 18.859375 7.042969 19.019531 7.089844 19.175781 7.144531 C 19.222656 7.160156 19.269531 7.179688 19.3125 7.195312 C 19.488281 7.261719 19.660156 7.332031 19.824219 7.414062 C 19.832031 7.417969 19.84375 7.421875 19.851562 7.425781 C 20.035156 7.515625 20.21875 7.617188 20.394531 7.730469 Z M 18 11.199219 L 18.800781 11.199219 L 18.800781 12 C 18.800781 12.222656 18.980469 12.398438 19.199219 12.398438 C 19.421875 12.398438 19.601562 12.222656 19.601562 12 L 19.601562 11.199219 L 20.398438 11.199219 L 20.398438 12.800781 L 18 12.800781 Z M 17.199219 5.996094 L 17.199219 6 L 12.398438 6 L 12.398438 5.601562 L 17.199219 5.601562 Z M 10.28125 7.0625 C 10.339844 7.042969 10.394531 7.027344 10.453125 7.011719 C 10.59375 6.972656 10.730469 6.941406 10.871094 6.914062 C 10.902344 6.910156 10.929688 6.902344 10.960938 6.894531 C 11.007812 6.886719 11.054688 6.882812 11.101562 6.875 C 11.234375 6.855469 11.371094 6.835938 11.507812 6.824219 C 11.539062 6.824219 11.570312 6.824219 11.601562 6.820312 L 11.601562 10.398438 L 9.199219 10.398438 L 9.199219 7.503906 C 9.546875 7.320312 9.910156 7.175781 10.28125 7.0625 Z M 9.199219 11.199219 L 10 11.199219 L 10 12 C 10 12.222656 10.179688 12.398438 10.398438 12.398438 C 10.621094 12.398438 10.800781 12.222656 10.800781 12 L 10.800781 11.199219 L 11.601562 11.199219 L 11.601562 12.800781 L 9.199219 12.800781 Z M 12.398438 10.398438 L 12.398438 6.800781 L 17.199219 6.800781 L 17.199219 13.601562 L 12.398438 13.601562 Z M 18 13.601562 L 20.398438 13.601562 L 20.398438 14.632812 L 19.199219 15.835938 L 18 14.632812 Z M 22.800781 3 C 22.800781 3.992188 21.992188 4.800781 21 4.800781 L 20 4.800781 L 20 1.199219 L 21 1.199219 C 21.992188 1.199219 22.800781 2.007812 22.800781 3 Z M 18.050781 0.800781 L 19.148438 0.800781 C 19.175781 0.800781 19.199219 0.824219 19.199219 0.851562 L 19.199219 6.300781 C 18.8125 6.183594 18.410156 6.101562 18 6.050781 L 18 0.851562 C 18 0.824219 18.023438 0.800781 18.050781 0.800781 Z M 17.199219 4.800781 L 12.398438 4.800781 L 12.398438 1.199219 L 17.199219 1.199219 Z M 8.601562 4.800781 C 7.609375 4.800781 6.800781 3.992188 6.800781 3 C 6.800781 2.007812 7.609375 1.199219 8.601562 1.199219 L 9.601562 1.199219 L 9.601562 4.800781 Z M 10.398438 0.851562 C 10.398438 0.824219 10.421875 0.800781 10.453125 0.800781 L 11.546875 0.800781 C 11.578125 0.800781 11.601562 0.824219 11.601562 0.851562 L 11.601562 6.011719 C 11.59375 6.011719 11.589844 6.011719 11.582031 6.015625 C 11.523438 6.019531 11.464844 6.023438 11.402344 6.03125 C 11.339844 6.035156 11.277344 6.042969 11.210938 6.050781 C 11.15625 6.054688 11.097656 6.0625 11.042969 6.070312 C 10.996094 6.078125 10.953125 6.085938 10.90625 6.09375 C 10.863281 6.101562 10.820312 6.109375 10.777344 6.117188 C 10.664062 6.136719 10.558594 6.160156 10.449219 6.183594 C 10.433594 6.1875 10.417969 6.191406 10.398438 6.195312 Z M 8.398438 8.011719 L 8.398438 13.40625 C 7.371094 12.917969 6.363281 12.046875 6.328125 10.871094 C 6.363281 10.761719 6.402344 10.65625 6.445312 10.550781 C 6.546875 10.300781 6.675781 10.042969 6.824219 9.785156 L 6.878906 9.691406 L 6.878906 9.6875 C 7.277344 9.035156 7.792969 8.46875 8.398438 8.011719 Z M 3.601562 7.601562 L 4.398438 7.601562 L 4.398438 8.398438 L 3.601562 8.398438 Z M 2 9.28125 C 2 9.234375 2.035156 9.199219 2.082031 9.199219 L 6 9.199219 C 6.042969 9.199219 6.082031 9.234375 6.082031 9.28125 L 6.082031 9.464844 C 5.980469 9.640625 5.894531 9.816406 5.808594 10 L 2 10 Z M 1.199219 10.800781 L 5.5 10.800781 C 5.46875 10.902344 5.449219 11.007812 5.421875 11.109375 C 5.410156 11.148438 5.402344 11.1875 5.390625 11.226562 C 5.363281 11.351562 5.335938 11.472656 5.3125 11.597656 L 1.199219 11.597656 C 0.980469 11.597656 0.800781 11.421875 0.800781 11.199219 C 0.800781 10.980469 0.980469 10.800781 1.199219 10.800781 Z M 1.601562 12.398438 L 5.214844 12.398438 C 5.203125 12.539062 5.199219 12.671875 5.199219 12.800781 L 5.199219 14.398438 L 1.601562 14.398438 Z M 0.800781 20.464844 L 0.800781 15.199219 L 5.199219 15.199219 L 5.199219 23.199219 L 3.535156 23.199219 C 2.027344 23.199219 0.800781 21.972656 0.800781 20.464844 Z M 8 23.199219 L 8 20.070312 L 10.121094 21.886719 L 10.417969 22.113281 L 12.800781 20.070312 L 12.800781 23.199219 Z M 12.800781 19.015625 L 10.398438 21.074219 L 8 19.015625 L 8 18.398438 L 12.800781 18.398438 Z M 16.398438 23.199219 L 16.398438 20.070312 L 18.519531 21.886719 L 18.816406 22.113281 L 21.199219 20.070312 L 21.199219 23.195312 C 21.199219 23.199219 21.199219 23.199219 21.195312 23.199219 Z M 21.199219 19.015625 L 18.800781 21.074219 L 16.398438 19.015625 L 16.398438 18.398438 L 21.199219 18.398438 Z M 23.199219 21.199219 C 23.199219 22.019531 22.707031 22.722656 22 23.03125 L 22 17.601562 L 15.601562 17.601562 L 15.601562 23.199219 L 13.601562 23.199219 L 13.601562 17.601562 L 7.199219 17.601562 L 7.199219 23.199219 L 6 23.199219 L 6 12.800781 C 6 12.675781 6.011719 12.554688 6.019531 12.433594 C 6.574219 13.292969 7.507812 13.921875 8.398438 14.277344 L 8.398438 14.964844 L 10.039062 16.601562 C 10.132812 16.699219 10.261719 16.753906 10.398438 16.753906 C 10.539062 16.753906 10.664062 16.699219 10.761719 16.601562 L 12.398438 14.964844 L 12.398438 14.398438 L 17.199219 14.398438 L 17.199219 14.964844 L 18.835938 16.601562 C 18.933594 16.699219 19.0625 16.753906 19.199219 16.753906 C 19.335938 16.753906 19.464844 16.699219 19.5625 16.601562 L 21.199219 14.964844 L 21.199219 14.273438 C 22.082031 13.910156 22.765625 13.324219 23.191406 12.601562 C 23.191406 12.667969 23.199219 12.734375 23.199219 12.800781 Z M 23.199219 21.199219"/>
    <path d="M10.800781 19.601562C10.800781 19.820312 10.621094 20 10.398438 20 10.179688 20 10 19.820312 10 19.601562 10 19.378906 10.179688 19.199219 10.398438 19.199219 10.621094 19.199219 10.800781 19.378906 10.800781 19.601562zM19.199219 19.601562C19.199219 19.820312 19.019531 20 18.800781 20 18.578125 20 18.398438 19.820312 18.398438 19.601562 18.398438 19.378906 18.578125 19.199219 18.800781 19.199219 19.019531 19.199219 19.199219 19.378906 19.199219 19.601562zM10.800781 8C10.800781 8.222656 10.621094 8.398438 10.398438 8.398438 10.179688 8.398438 10 8.222656 10 8 10 7.777344 10.179688 7.601562 10.398438 7.601562 10.621094 7.601562 10.800781 7.777344 10.800781 8zM10.800781 9.601562C10.800781 9.820312 10.621094 10 10.398438 10 10.179688 10 10 9.820312 10 9.601562 10 9.378906 10.179688 9.199219 10.398438 9.199219 10.621094 9.199219 10.800781 9.378906 10.800781 9.601562zM19.601562 8C19.601562 8.222656 19.421875 8.398438 19.199219 8.398438 18.980469 8.398438 18.800781 8.222656 18.800781 8 18.800781 7.777344 18.980469 7.601562 19.199219 7.601562 19.421875 7.601562 19.601562 7.777344 19.601562 8zM19.601562 9.601562C19.601562 9.820312 19.421875 10 19.199219 10 18.980469 10 18.800781 9.820312 18.800781 9.601562 18.800781 9.378906 18.980469 9.199219 19.199219 9.199219 19.421875 9.199219 19.601562 9.378906 19.601562 9.601562zM19.601562 9.601562"/>
</svg>

<svg xmlns="http://www.w3.org/2000/svg" width="32" height="32" viewBox="0 0 24 24">
    <path d="M15.133 8.14c-.09-.09-.203-.12-.336-.14a.46.46 0 0 0-.332.14l-1.328 1.325a.474.474 0 0 0 0 .668l1.312 1.328a.47.47 0 0 0 .668.004l1.34-1.328a.47.47 0 0 0 0-.672zm-.348 2.524l-.855-.863.867-.864.863.86zm0 0"/>
    <path d="M21.2 7.313v-.004l-.095-.067a5.685 5.685 0 0 0-.394-.254c-.031-.02-.066-.043-.098-.062a6.062 6.062 0 0 0-.351-.188l-.07-.035L20 6.61V5.602h1A2.606 2.606 0 0 0 23.602 3 2.606 2.606 0 0 0 21 .398h-1.133A.845.845 0 0 0 19.148 0h-1.097a.85.85 0 0 0-.719.398H12.27A.857.857 0 0 0 11.547 0h-1.094c-.305 0-.57.16-.723.398H8.602A2.606 2.606 0 0 0 6 3a2.606 2.606 0 0 0 2.602 2.602h1v.843c-.407.153-.79.344-1.153.567l-.05.027v.004A6.865 6.865 0 0 0 6.62 8.656.874.874 0 0 0 6 8.398h-.8v-.957c0-.351-.29-.64-.641-.64H3.44c-.351 0-.64.289-.64.64v.957h-.719a.882.882 0 0 0-.883.883V10C.54 10 0 10.54 0 11.2c0 .523.336.96.8 1.128v2.07H0v6.067A3.54 3.54 0 0 0 3.535 24H21.2C22.742 24 24 22.742 24 21.2v-8.4a6.787 6.787 0 0 0-2.8-5.488zm1.671 3.55c-.023 1.086-.633 2-1.672 2.532V8.34a5.96 5.96 0 0 1 1.672 2.523zM9.2 13.602h2.403v1.03l-1.204 1.204L9.2 14.633zM20.395 7.73s.003 0 .003.004v2.664H18V6.863h.02a6.042 6.042 0 0 1 1.156.282c.047.015.094.035.137.05.175.067.347.137.511.22l.028.01c.183.09.367.192.543.305zM18 11.2h.8v.8c0 .223.18.398.4.398a.398.398 0 0 0 .402-.398v-.8h.796v1.6H18zm-.8-5.204V6h-4.802v-.398H17.2zM10.28 7.062a5.384 5.384 0 0 1 .59-.148c.031-.004.059-.012.09-.02.047-.007.094-.011.14-.019.133-.02.27-.04.407-.05.031 0 .062 0 .094-.005v3.578H9.199V7.504c.348-.184.711-.328 1.082-.441zM9.2 11.2H10V12c0 .223.18.398.398.398a.398.398 0 0 0 .403-.398v-.8h.8v1.6H9.2zm3.2-.8V6.8h4.8v6.8h-4.8zM18 13.601h2.398v1.03L19.2 15.837 18 14.633zM22.8 3c0 .992-.808 1.8-1.8 1.8h-1V1.2h1c.992 0 1.8.808 1.8 1.8zM18.05.8h1.098c.028 0 .051.024.051.052V6.3A7.18 7.18 0 0 0 18 6.05V.85c0-.027.023-.05.05-.05zm-.85 4h-4.802V1.2H17.2zm-8.598 0C7.609 4.8 6.8 3.993 6.8 3s.808-1.8 1.8-1.8h1v3.6zM10.398.853c0-.028.024-.051.055-.051h1.094c.031 0 .055.023.055.05v5.16c-.008 0-.012 0-.02.005a3.052 3.052 0 0 0-.18.015c-.062.004-.125.012-.191.02a2.458 2.458 0 0 0-.168.02l-.137.023-.129.023c-.113.02-.218.043-.328.067l-.05.011zm-2 7.16v5.394c-1.027-.488-2.035-1.36-2.07-2.535a4.47 4.47 0 0 1 .117-.32c.102-.25.23-.508.38-.766l.054-.094v-.004a6.048 6.048 0 0 1 1.52-1.675zm-4.796-.41h.796v.796h-.796zM2 9.282a.08.08 0 0 1 .082-.083H6c.043 0 .082.035.082.082v.184a6.895 6.895 0 0 0-.273.535H2zM1.2 10.8h4.3c-.031.101-.05.207-.078.308-.012.04-.02.079-.031.118-.028.125-.055.246-.079.37H1.2a.398.398 0 1 1 0-.796zm.402 1.597h3.613c-.012.141-.016.274-.016.403v1.597H1.602zM.8 20.465v-5.266h4.398v8H3.535a2.737 2.737 0 0 1-2.734-2.734zM8 23.199V20.07l2.121 1.817.297.226 2.383-2.043v3.13zm4.8-4.183l-2.402 2.058L8 19.016v-.618h4.8zm3.598 4.183V20.07l2.122 1.817.296.226L21.2 20.07v3.125c0 .004 0 .004-.004.004zm4.801-4.183l-2.398 2.058-2.403-2.058v-.618H21.2zm2 2.183c0 .82-.492 1.524-1.199 1.832v-5.43h-6.398V23.2h-2v-5.597H7.199v5.597H6V12.801c0-.125.012-.246.02-.367.554.859 1.488 1.488 2.378 1.843v.688l1.641 1.637a.505.505 0 0 0 .723 0l1.636-1.637v-.567H17.2v.567l1.637 1.637a.512.512 0 0 0 .727 0l1.636-1.637v-.692c.883-.363 1.567-.949 1.992-1.671 0 .066.008.132.008.199zm0 0"/>
    <path d="M10.8 19.602a.401.401 0 1 1-.801-.005.401.401 0 0 1 .802.005zm0 0M19.2 19.602a.4.4 0 1 1-.801-.004.4.4 0 0 1 .8.004zm0 0M10.8 8c0 .223-.179.398-.402.398a.398.398 0 1 1 0-.796c.223 0 .403.175.403.398zm0 0M10.8 9.602A.401.401 0 1 1 10 9.597a.401.401 0 0 1 .802.005zm0 0M19.602 8c0 .223-.18.398-.403.398a.398.398 0 1 1 0-.796c.223 0 .403.175.403.398zm0 0M19.602 9.602a.401.401 0 1 1-.802-.005.401.401 0 0 1 .802.005zm0 0"/>
</svg>
